X:1
T:Title
%%score { 1 | ( 2 3 ) }
L:1/8
Q:1/4=100
M:4/4
K:Bb
V:1 treble nm="Grand Piano"
V:2 bass 
V:3 bass 
V:1
 [DF]>[DF] [DF]2- [DF][DF] [EG]>[DF] | [DF]2 [DB]2 z2 F>F | F3 F A2 c2 | [DB]6 z2 | %4
w: J.~M.~Whyte * * * * * *||||
 [DF]>[DF] [DF]2- [DF][DF] [EG]>[DF] | [DF]2 [DB]2 z2 F>F | F3 F A2 c2 | [B,DB]6 z2 | %8
w: ||||
 [EAc]3 [EAc] [EAc]>[DFB] [CEA]>[B,EG] | [B,DF]2 [DFB]2 F>=E F2 | B3 B B>B d>[Ac] | %11
w: |||
 [Ae]2 [EAc]2 [CA]>[DB] [Ec]2 | [Fd]3 d e>e =e>e | f2 F2 E2 D2 | F>F F>F A2 c2 | [DB]6 z2 |] %16
w: |||||
V:2
 [B,,B,]>[B,,B,] [B,,B,]2- [B,,B,][B,,B,] [B,,B,]>[B,,B,] | [B,,B,]2 [B,,B,]2 z2 [F,B,D]>[F,B,D] | %2
 [F,CE]3 [F,CE] [F,CE]2 [F,A,E]2 | [B,,B,]6 z2 | %4
 [B,,B,]>[B,,B,] [B,,B,]2- [B,,B,][B,,B,] [B,,B,]>[B,,B,] | [B,,B,]2 [B,,B,]2 z2 [F,B,D]>[F,B,D] | %6
 [F,CE]3 [F,CE] [F,CE]2 [F,A,E]2 | B,,6 z2 | F,3 F, F,>F, F,>F, | %9
 B,,2 B,,2[K:treble] [B,D]>[B,_D] [B,=D]2 | [G,DG]3 [G,DG] [G,DG]>[G,DG] [G,B,G]>[K:bass][F,A,] | %11
 [F,C]2 F,2 F,>F, F,2 | B,2 z[K:treble] F F>F G>G | [F,DF]2 [F,B,D]2 [F,C]2 [B,,B,]2 | %14
 [F,B,D]>[F,B,D] [F,CE]>[F,CE] [F,CE]2 [F,A,E]2 | [B,,B,]6 z2 |] %16
V:3
 x8 | x8 | x8 | x8 | x8 | x8 | x8 | x8 | x8 | x4[K:treble] x4 | x15/2[K:bass] x/ | x8 | %12
 z2 B,2[K:treble] [A,C]2 [G,_D]2 | x8 | x8 | x8 |] %16

